X: 27
T:Stybarrow Crag. WI.027
T:Sunderland Pier,aka. WI.027
M:C|
L:1/8
Q:180
C:"A Hornpipe by Hamilton"Sunderland Pier,aka
S:Wm Irwin, 1838 MS, AGG's Transcription
R:Hornpipe
O:England
A:Lake District
Z:vmp.Chris Partington.2005
K:A
ed|c2ec d2fd|e2fg a2gf|eaec aedc|c2B2 B2ed|!
ccce dddf|eeeg a2gf|eaec BABc|A2c2 A2:|!
|:gf|efge bege|gefd cAed|dBfd cAec|BABc B2ed|!
cedf eagb|aefg a2gf|eaec BABc|A2c2 A2:|]
